img/icons/electronic/refrigerator.svg

<svg xmlns="http://www.w3.org/2000/svg" viewBox="0 0 34 48"><defs><style>.cls-1{fill:#231f20}</style></defs><g id="Layer_2" data-name="Layer 2"><g id="Icons"><g id="Device_Electronic" data-name="Device / Electronic"><g id="Refrigerator"><path class="cls-1" d="M0 0v41a7 7 0 007 7h20a7 7 0 007-7V0zm32 2v24H2V2zm-5 44H7a5 5 0 01-5-5V28h30v13a5 5 0 01-5 5z"/><path class="cls-1" d="M27 18h2v6h-2zm0 12h2v6h-2z"/></g></g></g></g></svg>

<svg xmlns="http://www.w3.org/2000/svg" viewBox="0 0 34 48"><defs><style>.cls-1{fill:#231f20;}</style></defs><title>Refrigerator</title><g id="Layer_2" data-name="Layer 2"><g id="Icons"><g id="Device_Electronic" data-name="Device / Electronic"><g id="Refrigerator"><path class="cls-1" d="M0,0V41a7,7,0,0,0,7,7H27a7,7,0,0,0,7-7V0ZM32,2V26H2V2ZM27,46H7a5,5,0,0,1-5-5V28H32V41A5,5,0,0,1,27,46Z"/><rect class="cls-1" x="27" y="18" width="2" height="6"/><rect class="cls-1" x="27" y="30" width="2" height="6"/></g></g></g></g></svg>
